X:63
T:Over the Water to Charly. GS.063
M:6/8
L:1/8
Q:3/8=120
S:George Spencer m/s, Leeds,1831
R:.Jig
O:England
A:Leeds
H:1831
Z:vmp.Cherri Graebe
K:G Major
GBd dBd | ege dBG | GBd dBd | e3 â€œ^crâ€g3 |!
GBd dBd | ege dBG | gbg faf |e3 â€œ^crâ€g3 :|!
|:gbg faf | ege dBG | gbg faf | e3g3 |!
gbg faf | ege dBG | GBd dBd | e3 â€œ^crâ€g3 ğŸ˜

